src/static/logos/ionic.svg

<?xml version="1.0" encoding="UTF-8"?>
<svg width="256px" height="256px" viewBox="0 0 256 256" version="1.1" xmlns="http://www.w3.org/2000/svg" xmlns:xlink="http://www.w3.org/1999/xlink" preserveAspectRatio="xMidYMid">
    <g>
        <path d="M234.651433,39.3216115 C234.651433,43.8242291 232.983104,47.9295567 230.245259,51.0819649 C246.406028,72.5125813 256,99.1554672 256,128.00072 C256,198.578673 198.580112,256.00144 128.00072,256.00144 C57.4213277,256.00144 0,198.578673 0,128.00072 C0,57.4213276 57.4198882,0 127.999281,0 C156.844533,0 183.487419,9.59397231 204.916597,25.756181 C208.071883,23.0183362 212.174332,21.3514465 216.678389,21.3514465 C226.601996,21.3514465 234.651433,29.3951251 234.651433,39.3216115 Z M127.999281,251.694589 C196.20501,251.694589 251.693149,196.20357 251.69027,127.997841 C251.69027,100.262409 242.515179,74.6357786 227.04247,53.9824679 C224.110299,56.0581632 220.541888,57.2888979 216.67551,57.2888979 C206.751903,57.2888979 198.705345,49.2452193 198.705345,39.3201722 C198.705345,35.4552336 199.936079,31.8825045 202.011775,28.9517728 C181.358464,13.4790633 155.731835,4.30397259 127.999281,4.30397259 C59.7949901,4.30397259 4.30397256,59.7949902 4.30397256,127.999281 C4.30397256,196.20357 59.7949901,251.694589 127.999281,251.694589 Z M128.00072,180.26016 C99.1378337,180.26016 75.7398413,156.862167 75.7398413,127.999281 C75.7398413,99.1363943 99.1378337,75.7384018 128.00072,75.7384018 C156.863607,75.7384018 180.261599,99.1363943 180.261599,127.999281 C180.261599,156.862167 156.863607,180.26016 128.00072,180.26016 Z" fill="#4E8EF7"></path>
    </g>
</svg>

<svg width="256" height="256" xmlns="http://www.w3.org/2000/svg" preserveAspectRatio="xMidYMid"><path d="M234.651 39.322a17.87 17.87 0 01-4.406 11.76C246.406 72.512 256 99.155 256 128.001c0 70.578-57.42 128-128 128-70.579 0-128-57.422-128-128C0 57.42 57.42 0 128 0c28.845 0 55.487 9.594 76.917 25.756 3.155-2.738 7.257-4.405 11.761-4.405 9.924 0 17.973 8.044 17.973 17.97zM128 251.695c68.206 0 123.694-55.491 123.691-123.697 0-27.736-9.175-53.362-24.648-74.016a17.872 17.872 0 01-10.366 3.307c-9.924 0-17.97-8.044-17.97-17.969 0-3.865 1.23-7.437 3.306-10.368C181.359 13.479 155.733 4.304 128 4.304 59.796 4.304 4.305 59.795 4.305 127.999c0 68.205 55.491 123.696 123.695 123.696zm.002-71.435c-28.863 0-52.261-23.398-52.261-52.26 0-28.864 23.398-52.262 52.26-52.262 28.864 0 52.262 23.398 52.262 52.261 0 28.863-23.398 52.261-52.261 52.261z" fill="#4E8EF7"/></svg>
